X: 37940
T: Spagnoletta
R: jig
M: 6/8
K: Gmajor
GA|B>cB BcA|G>AG GAB|c>dc Bcd|A>GF/E/ DGA|
B>cB BcA|G>AG GAB|c>BA/G/ FGF|G3G:|
|:Bc|d>ed/c/ B>AG|c>Bc A2D|E>FG A>GF|1 G3G:|2 G3G2||
|:A|B>^cd e>d^c|d3d2A|B/A/B/^c/d ed^c|d3d2B/c/|
d>cB ABc|B>AG F>ED|E>FG F/G/AF|G3G2||

